icons/lines/camera.svg

<svg xmlns="http://www.w3.org/2000/svg" width="24" height="24" viewBox="0 0 24 24" fill="none" stroke="currentColor" stroke-width="2" stroke-linecap="round" stroke-linejoin="round" >
  <path d="M6.76017 22H17.2402C20.0002 22 21.1002 20.31 21.2302 18.25L21.7502 9.99C21.8902 7.83 20.1702 6 18.0002 6C17.3902 6 16.8302 5.65 16.5502 5.11L15.8302 3.66C15.3702 2.75 14.1702 2 13.1502 2H10.8602C9.83017 2 8.63017 2.75 8.17017 3.66L7.45017 5.11C7.17017 5.65 6.61017 6 6.00017 6C3.83017 6 2.11017 7.83 2.25017 9.99L2.77017 18.25C2.89017 20.31 4.00017 22 6.76017 22Z"/>
  <path d="M10.5 8H13.5"/>
  <path d="M12 18C13.79 18 15.25 16.54 15.25 14.75C15.25 12.96 13.79 11.5 12 11.5C10.21 11.5 8.75 12.96 8.75 14.75C8.75 16.54 10.21 18 12 18Z"/>
  </svg>

<svg xmlns="http://www.w3.org/2000/svg" width="24" height="24" viewBox="0 0 24 24" fill="none" stroke="currentColor" stroke-width="2" stroke-linecap="round" stroke-linejoin="round">
  <path d="M10.5 8h3" />
  <path d="M17.24 22c2.76 0 3.86-1.69 3.99-3.75l.52-8.26A3.753 3.753 0 0 0 18 6a1.64 1.64 0 0 1-1.45-.89l-.72-1.45C15.37 2.75 14.17 2 13.15 2h-2.29c-1.03 0-2.23.75-2.69 1.66l-.72 1.45A1.64 1.64 0 0 1 6 6a3.753 3.753 0 0 0-3.75 3.99l.52 8.26C2.89 20.31 4 22 6.76 22z" />
  <circle cx="12" cy="14.75" r="3.256" />
</svg>
